X: 30143
T: Old Claddagh Ring, The
R: waltz
M: 3/4
K: Gmajor
D2|GAG|EDE|ded|dBd|ege|dBA|GAB|A2 D|
GAG|EDE|ded|dBd|ege|dBG|ABA|G2 d|
dBc|def|gfg|edd|ege|dBA|GAB|A2D|
dBc|def|gfg|edd|ege|dBG|ABA|G3|

